actions/24/help-about.svg

<?xml version="1.0" encoding="UTF-8" standalone="no"?>
<!-- Created with Inkscape (http://www.inkscape.org/) -->

<svg
   xmlns:svg="http://www.w3.org/2000/svg"
   xmlns="http://www.w3.org/2000/svg"
   xmlns:xlink="http://www.w3.org/1999/xlink"
   version="1.0"
   width="24"
   height="24"
   id="svg2808">
  <defs
     id="defs2810">
    <linearGradient
       id="linearGradient8838">
      <stop
         id="stop8840"
         style="stop-color:#7e7e7e;stop-opacity:1"
         offset="0" />
      <stop
         id="stop8842"
         style="stop-color:#868686;stop-opacity:0"
         offset="1" />
    </linearGradient>
    <radialGradient
       cx="62.625"
       cy="4.625"
       r="10.625"
       fx="62.625"
       fy="4.625"
       id="radialGradient2493"
       xlink:href="#linearGradient8838"
       gradientUnits="userSpaceOnUse"
       gradientTransform="matrix(1,0,0,0.341176,0,3.047059)" />
    <linearGradient
       id="linearGradient3903">
      <stop
         id="stop3905"
         style="stop-color:#a05400;stop-opacity:1"
         offset="0" />
      <stop
         id="stop3907"
         style="stop-color:#c8a000;stop-opacity:1"
         offset="1" />
    </linearGradient>
    <linearGradient
       x1="21.483376"
       y1="36.345936"
       x2="21.483376"
       y2="13.090934"
       id="linearGradient3901"
       xlink:href="#linearGradient3903"
       gradientUnits="userSpaceOnUse"
       gradientTransform="matrix(0.7732717,0,0,0.8121481,-4.6124874,-7.6493304)" />
    <linearGradient
       id="linearGradient2250">
      <stop
         id="stop2252"
         style="stop-color:#ffc349;stop-opacity:1"
         offset="0" />
      <stop
         id="stop2256"
         style="stop-color:#ff921a;stop-opacity:1"
         offset="1" />
    </linearGradient>
    <linearGradient
       x1="21.483376"
       y1="21.671062"
       x2="21.483376"
       y2="33.409534"
       id="linearGradient3899"
       xlink:href="#linearGradient2250"
       gradientUnits="userSpaceOnUse"
       gradientTransform="matrix(0.7732717,0,0,0.8121481,-4.6124874,-7.6493304)" />
    <linearGradient
       id="linearGradient5178">
      <stop
         id="stop5180"
         style="stop-color:white;stop-opacity:1"
         offset="0" />
      <stop
         id="stop6155"
         style="stop-color:#ffdea1;stop-opacity:1"
         offset="0.8918919" />
      <stop
         id="stop5182"
         style="stop-color:#ffbd43;stop-opacity:0"
         offset="1" />
    </linearGradient>
    <linearGradient
       x1="21.483376"
       y1="9.463129"
       x2="21.483376"
       y2="26.294357"
       id="linearGradient3892"
       xlink:href="#linearGradient5178"
       gradientUnits="userSpaceOnUse"
       gradientTransform="matrix(0.7295433,0,0,0.755896,-3.6884057,-6.3976124)" />
    <linearGradient
       id="linearGradient3230">
      <stop
         id="stop3232"
         style="stop-color:#ffefa7;stop-opacity:1"
         offset="0" />
      <stop
         id="stop3234"
         style="stop-color:#ffc64c;stop-opacity:1"
         offset="1" />
    </linearGradient>
    <linearGradient
       x1="24.097157"
       y1="9.5958176"
       x2="23.673159"
       y2="22.839001"
       id="linearGradient3890"
       xlink:href="#linearGradient3230"
       gradientUnits="userSpaceOnUse"
       gradientTransform="matrix(0.630891,0,0,0.6602294,-3.1413822,-3.5253908)" />
  </defs>
  <g
     id="layer1">
    <path
       d="m 73.25,4.625 a 10.625,3.625 0 1 1 -21.25,0 10.625,3.625 0 1 1 21.25,0 z"
       transform="matrix(1.0823528,0,0,0.9655173,-55.782344,16.034483)"
       id="path8836"
       style="opacity:0.56043958;fill:url(#radialGradient2493);fill-opacity:1;fill-rule:evenodd;stroke:none;stroke-width:0.99999988;marker:none;visibility:visible;display:inline;overflow:visible" />
    <path
       d="m 11.999999,0.4592013 c 0.68671,0.44233281 0.949573,1.3642598 1.361221,2.0633301 0.715987,1.4053297 1.281673,2.8980327 2.092032,4.2481737 0.701503,0.5432304 1.689552,0.4480418 2.522136,0.650853 1.452792,0.2578627 2.959398,0.338829 4.349098,0.8826134 0.592412,0.5915995 -0.634159,1.3492955 -0.937561,1.8654785 -1.137364,1.27267 -2.432641,2.388473 -3.50169,3.726973 -0.275136,0.868577 0.116385,1.826097 0.190016,2.720413 0.215434,1.530836 0.607684,3.06076 0.544711,4.61693 -0.352646,0.774559 -1.417794,-0.216487 -1.978969,-0.360037 -1.503907,-0.742804 -2.914564,-1.691817 -4.456971,-2.346039 -0.871546,-0.0064 -1.617623,0.680549 -2.4046997,1.030456 C 8.4596761,20.246592 7.1954936,21.11117 5.7668749,21.529151 4.956514,21.416255 5.4021845,20.168664 5.4813637,19.44116 5.6892632,17.709411 6.112706,16.007085 6.228495,14.264253 5.9649856,13.391708 5.1123646,12.858758 4.5522932,12.180696 3.5212723,11.07522 2.3477158,10.079634 1.5277529,8.7817909 1.3795686,7.937459 2.7959293,8.081677 3.3302664,7.8513778 4.9626623,7.5239026 6.6350224,7.4208199 8.2489905,6.9979133 8.9576785,6.4650702 9.1768067,5.4487205 9.6177409,4.6797494 10.300181,3.3082814 10.839065,1.8283965 11.760919,0.60830398 11.827802,0.5436375 11.902246,0.46442001 11.999999,0.4592013 z"
       id="path1307"
       style="fill:url(#linearGradient3899);fill-opacity:1;fill-rule:nonzero;stroke:url(#linearGradient3901);stroke-width:0.99999994;stroke-linecap:butt;stroke-linejoin:round;stroke-miterlimit:4;stroke-opacity:1;stroke-dasharray:none;stroke-dashoffset:0;marker:none;visibility:visible;display:inline;overflow:visible" />
    <path
       d="m 11.999999,1.9045242 c 1.056523,2.1161685 2.017141,3.8409405 3.073664,5.9571081 2.268915,0.3871768 3.855603,0.7089645 6.124517,1.0961413 C 19.582232,10.652814 17.961555,12.30496 16.345607,14 22.42262,24.180728 5.7584081,22.920175 7.5808153,13.868611 5.9648682,12.173572 4.345965,10.6098 2.7300182,8.9147588 4.998932,8.5275829 6.7475516,8.3061056 9.0164653,7.9189288 10.072988,5.8027612 10.943477,4.0206927 11.999999,1.9045242 z"
       id="path1309"
       style="fill:none;stroke:url(#linearGradient3892);stroke-width:1;stroke-linecap:butt;stroke-linejoin:miter;stroke-miterlimit:4;stroke-opacity:1;stroke-dasharray:none;stroke-dashoffset:0;marker:none;visibility:visible;display:inline;overflow:visible" />
    <path
       d="M 12,3 9.3500748,8.3317509 3.7575636,9.2674904 6.9779993,12.619454 C 8.9262761,10.623896 9.6388709,10.958216 12,11 c 2.361131,0.04178 3.196996,-0.179217 5.071406,1.561008 L 20.242436,9.2346308 14.770389,8.287499 12,3 z"
       id="path1322"
       style="fill:url(#linearGradient3890);fill-opacity:1;fill-rule:nonzero;stroke:none;stroke-width:1;marker:none;visibility:visible;display:inline;overflow:visible" />
  </g>
</svg>

<?xml version="1.0" encoding="UTF-8" standalone="no"?>
<!-- Created with Inkscape (http://www.inkscape.org/) -->
<svg
   xmlns:dc="http://purl.org/dc/elements/1.1/"
   xmlns:cc="http://creativecommons.org/ns#"
   xmlns:rdf="http://www.w3.org/1999/02/22-rdf-syntax-ns#"
   xmlns:svg="http://www.w3.org/2000/svg"
   xmlns="http://www.w3.org/2000/svg"
   xmlns:xlink="http://www.w3.org/1999/xlink"
   xmlns:sodipodi="http://sodipodi.sourceforge.net/DTD/sodipodi-0.dtd"
   xmlns:inkscape="http://www.inkscape.org/namespaces/inkscape"
   width="24"
   height="24"
   id="svg2808"
   sodipodi:version="0.32"
   inkscape:version="0.46"
   version="1.0"
   sodipodi:docname="gnome-app-install-star.svg"
   inkscape:output_extension="org.inkscape.output.svg.inkscape">
  <defs
     id="defs2810">
    <linearGradient
       id="linearGradient8838">
      <stop
         id="stop8840"
         offset="0"
         style="stop-color:#7e7e7e;stop-opacity:1;" />
      <stop
         id="stop8842"
         offset="1"
         style="stop-color:#868686;stop-opacity:0;" />
    </linearGradient>
    <radialGradient
       r="10.625"
       fy="4.625"
       fx="62.625"
       cy="4.625"
       cx="62.625"
       gradientTransform="matrix(1,0,0,0.341176,0,3.047059)"
       gradientUnits="userSpaceOnUse"
       id="radialGradient2493"
       xlink:href="#linearGradient8838"
       inkscape:collect="always" />
    <linearGradient
       id="linearGradient3903">
      <stop
         style="stop-color:#a05400;stop-opacity:1;"
         offset="0"
         id="stop3905" />
      <stop
         style="stop-color:#c8a000;stop-opacity:1;"
         offset="1"
         id="stop3907" />
    </linearGradient>
    <linearGradient
       inkscape:collect="always"
       xlink:href="#linearGradient3903"
       id="linearGradient3901"
       gradientUnits="userSpaceOnUse"
       x1="21.483376"
       y1="36.345936"
       x2="21.483376"
       y2="13.090934"
       gradientTransform="matrix(0.7732717,0,0,0.8121481,-4.6124874,-7.6493304)" />
    <linearGradient
       id="linearGradient2250">
      <stop
         id="stop2252"
         offset="0"
         style="stop-color:#ffc349;stop-opacity:1;" />
      <stop
         id="stop2256"
         offset="1"
         style="stop-color:#ff921a;stop-opacity:1" />
    </linearGradient>
    <linearGradient
       inkscape:collect="always"
       xlink:href="#linearGradient2250"
       id="linearGradient3899"
       gradientUnits="userSpaceOnUse"
       x1="21.483376"
       y1="21.671062"
       x2="21.483376"
       y2="33.409534"
       gradientTransform="matrix(0.7732717,0,0,0.8121481,-4.6124874,-7.6493304)" />
    <linearGradient
       id="linearGradient5178">
      <stop
         id="stop5180"
         offset="0"
         style="stop-color:#ffffff;stop-opacity:1;" />
      <stop
         style="stop-color:#ffdea1;stop-opacity:1;"
         offset="0.8918919"
         id="stop6155" />
      <stop
         id="stop5182"
         offset="1"
         style="stop-color:#ffbd43;stop-opacity:0;" />
    </linearGradient>
    <linearGradient
       inkscape:collect="always"
       xlink:href="#linearGradient5178"
       id="linearGradient3892"
       gradientUnits="userSpaceOnUse"
       gradientTransform="matrix(0.7295433,0,0,0.755896,-3.6884057,-6.3976124)"
       x1="21.483376"
       y1="9.463129"
       x2="21.483376"
       y2="26.294357" />
    <linearGradient
       id="linearGradient3230"
       inkscape:collect="always">
      <stop
         id="stop3232"
         offset="0"
         style="stop-color:#ffefa7;stop-opacity:1" />
      <stop
         id="stop3234"
         offset="1"
         style="stop-color:#ffc64c;stop-opacity:1" />
    </linearGradient>
    <linearGradient
       inkscape:collect="always"
       xlink:href="#linearGradient3230"
       id="linearGradient3890"
       gradientUnits="userSpaceOnUse"
       gradientTransform="matrix(0.630891,0,0,0.6602294,-3.1413822,-3.5253908)"
       x1="24.097157"
       y1="9.5958176"
       x2="23.673159"
       y2="22.839001" />
  </defs>
  <sodipodi:namedview
     id="base"
     pagecolor="#ffffff"
     bordercolor="#666666"
     borderopacity="1.0"
     inkscape:pageopacity="0.0"
     inkscape:pageshadow="2"
     inkscape:zoom="11.197802"
     inkscape:cx="16"
     inkscape:cy="16"
     inkscape:current-layer="layer1"
     showgrid="true"
     inkscape:grid-bbox="true"
     inkscape:document-units="px"
     inkscape:window-width="640"
     inkscape:window-height="720"
     inkscape:window-x="800"
     inkscape:window-y="24" />
  <metadata
     id="metadata2813">
    <rdf:RDF>
      <cc:Work
         rdf:about="">
        <dc:format>image/svg+xml</dc:format>
        <dc:type
           rdf:resource="http://purl.org/dc/dcmitype/StillImage" />
      </cc:Work>
    </rdf:RDF>
  </metadata>
  <g
     id="layer1"
     inkscape:label="Layer 1"
     inkscape:groupmode="layer">
    <path
       transform="matrix(1.0823528,0,0,0.9655173,-55.782344,16.034483)"
       d="M 73.25,4.625 A 10.625,3.625 0 1 1 52,4.625 A 10.625,3.625 0 1 1 73.25,4.625 z"
       sodipodi:ry="3.625"
       sodipodi:rx="10.625"
       sodipodi:cy="4.625"
       sodipodi:cx="62.625"
       id="path8836"
       style="display:inline;opacity:0.56043958000000005;fill:url(#radialGradient2493);fill-opacity:1;fill-rule:evenodd;stroke:none;stroke-width:0.99999987999999995;stroke-linecap:butt;stroke-linejoin:round;marker:none;marker-start:none;marker-mid:none;marker-end:none;stroke-miterlimit:4;stroke-dasharray:none;stroke-dashoffset:0;stroke-opacity:1;visibility:visible;overflow:visible"
       sodipodi:type="arc" />
    <path
       style="display:inline;opacity:1;fill:url(#linearGradient3899);fill-opacity:1;fill-rule:nonzero;stroke:url(#linearGradient3901);stroke-width:0.99999994000000003;stroke-linecap:butt;stroke-linejoin:round;marker:none;marker-start:none;marker-mid:none;marker-end:none;stroke-miterlimit:4;stroke-dasharray:none;stroke-dashoffset:0;stroke-opacity:1;visibility:visible;overflow:visible"
       d="M 11.999999,0.4592013 C 12.686709,0.90153411 12.949572,1.8234611 13.36122,2.5225314 C 14.077207,3.9278611 14.642893,5.4205641 15.453252,6.7707051 C 16.154755,7.3139355 17.142804,7.2187469 17.975388,7.4215581 C 19.42818,7.6794208 20.934786,7.7603871 22.324486,8.3041715 C 22.916898,8.895771 21.690327,9.653467 21.386925,10.16965 C 20.249561,11.44232 18.954284,12.558123 17.885235,13.896623 C 17.610099,14.7652 18.00162,15.72272 18.075251,16.617036 C 18.290685,18.147872 18.682935,19.677796 18.619962,21.233966 C 18.267316,22.008525 17.202168,21.017479 16.640993,20.873929 C 15.137086,20.131125 13.726429,19.182112 12.184022,18.52789 C 11.312476,18.521471 10.566399,19.208439 9.7793223,19.558346 C 8.4596761,20.246592 7.1954936,21.11117 5.7668749,21.529151 C 4.956514,21.416255 5.4021845,20.168664 5.4813637,19.44116 C 5.6892632,17.709411 6.112706,16.007085 6.228495,14.264253 C 5.9649856,13.391708 5.1123646,12.858758 4.5522932,12.180696 C 3.5212723,11.07522 2.3477158,10.079634 1.5277529,8.7817909 C 1.3795686,7.937459 2.7959293,8.081677 3.3302664,7.8513778 C 4.9626623,7.5239026 6.6350224,7.4208199 8.2489905,6.9979133 C 8.9576785,6.4650702 9.1768067,5.4487205 9.6177409,4.6797494 C 10.300181,3.3082814 10.839065,1.8283965 11.760919,0.60830398 C 11.827802,0.5436375 11.902246,0.46442001 11.999999,0.4592013 z"
       id="path1307"
       sodipodi:nodetypes="cccccccccccccccccccccc" />
    <path
       style="display:inline;opacity:1;fill:none;fill-opacity:1;fill-rule:nonzero;stroke:url(#linearGradient3892);stroke-width:1;stroke-linecap:butt;stroke-linejoin:miter;marker:none;marker-start:none;marker-mid:none;marker-end:none;stroke-miterlimit:4;stroke-dasharray:none;stroke-dashoffset:0;stroke-opacity:1;visibility:visible;overflow:visible"
       d="M 11.999999,1.9045242 C 13.056522,4.0206927 14.01714,5.7454647 15.073663,7.8616323 C 17.342578,8.2488091 18.929266,8.5705968 21.19818,8.9577736 C 19.582232,10.652814 17.961555,12.30496 16.345607,14 C 22.42262,24.180728 5.7584081,22.920175 7.5808153,13.868611 C 5.9648682,12.173572 4.345965,10.6098 2.7300182,8.9147588 C 4.998932,8.5275829 6.7475516,8.3061056 9.0164653,7.9189288 C 10.072988,5.8027612 10.943477,4.0206927 11.999999,1.9045242 z"
       id="path1309"
       sodipodi:nodetypes="cccccccc" />
    <path
       sodipodi:nodetypes="cccczcccc"
       id="path1322"
       d="M 12,3 L 9.3500748,8.3317509 L 3.7575636,9.2674904 L 6.9779993,12.619454 C 8.9262761,10.623896 9.6388709,10.958216 12,11 C 14.361131,11.041781 15.196996,10.820783 17.071406,12.561008 L 20.242436,9.2346308 L 14.770389,8.287499 L 12,3 z"
       style="display:inline;opacity:1;fill:url(#linearGradient3890);fill-opacity:1;fill-rule:nonzero;stroke:none;stroke-width:1;stroke-linecap:butt;stroke-linejoin:round;marker:none;marker-start:none;marker-mid:none;marker-end:none;stroke-miterlimit:4;stroke-dasharray:none;stroke-dashoffset:0;stroke-opacity:1;visibility:visible;overflow:visible" />
  </g>
</svg>
